X: 1231
T: An Dro D'Elven
R: barndance
M: 4/4
K: Gminor
|:G2d2 B2G2|d2de dcAB|c2cd B2G2|ABcB Adcd|
G2d2 B2G2|d2de dcAB|c2cd B2GA|BGAF G4:|
|:G2c2 A2d2|G2GA BcAB|c2cd B2G2|ABcB Adcd|
G2c2 A2d2|G2GA BcAB|c2cd B2GA|BGAF G4:|

